T: Glencoe March, The
M: 4/4
L: 1/8
K: Dmaj
A2 d2 F2 d2 | A>FA<d f3 a | g3 e c>Ac<e | d>cd>B A2 F<G |A2 d2 F2 d2 | A>FA<d f3 a | g3 e c>Ac<e | d4 d2 :|a3 g f>df<a | g3 e c>Ac<e | d>cd>e f>ef<a | g>fg<b a2 f<g |[1 a3 g f>df<a | g3 e c>Ac<e | d>cd>f e<a-a>c | d4 d2 :|[2 (3agf g>e f>de<c | d>BA>F D>FA<d | B>GB<d c>Ac<e | d4 d2 |]
